X:40
T: ES SEI MEIN HERZ UND BLUT GEWEIHT
N: B0049
O: Europa, Mitteleuropa, Deutschland
R: Kriegs -, Sieges -, Soldaten - Lied
M: 4/4
L: 1/8
K: Eb
EF | G2A2B2cd | e2dcB2
c2 | A2B2G2BA | G2F2z2
EF | G2A2B2cd | e2dcB2
c2 | A2B2G2BA | G2F2z2
F2 | F2G2A3F | G2A2B2
B2 | c2B2c2d2 | e2dcB2
c2 | A2B2G2BA | G2F2E2

